dist/svg/static/cubic-capacity-large.svg

<svg xmlns="http://www.w3.org/2000/svg" width="48" height="48" viewBox="0 0 48 48"><g fill="none" stroke="currentColor" stroke-miterlimit="10"><path d="M23.5 38.5c0 2.761-2.218 5-4.955 5-2.736 0-5.045-2.239-5.045-5s2.309-5 5.045-5c2.737 0 4.955 2.239 4.955 5zM22.118 35.05l5.27-12.55M23.05 22.5l-4.625 11.012"/><g><path d="M16.5 10.5h18M34.5 22.5h-18v-15a3 3 0 0 1 3-3h12a3 3 0 0 1 3 3v15z"/></g></g></svg>

<?xml version="1.0" encoding="UTF-8" standalone="no"?>
<svg width="48px" height="48px" viewBox="0 0 48 48" version="1.1" xmlns="http://www.w3.org/2000/svg" xmlns:xlink="http://www.w3.org/1999/xlink">
    <!-- Generator: sketchtool 46.2 (44496) - http://www.bohemiancoding.com/sketch -->
    <title>cubic-capacity-large</title>
    <desc>Created with sketchtool.</desc>
    <defs></defs>
    <g id="icons-published" stroke="none" stroke-width="1" fill="none" fill-rule="evenodd">
        <g id="briefing" transform="translate(-1152.000000, -410.000000)"></g>
        <g id="cubic-capacity-large" stroke="#000000">
            <path d="M23.5,38.5 C23.5,41.3 21.3,43.5 18.5,43.5 C15.8,43.5 13.5,41.3 13.5,38.5 C13.5,35.7 15.8,33.5 18.5,33.5 C21.3,33.5 23.5,35.7 23.5,38.5 Z M22.1,35 L27.4,22.5 L22.1,35 Z M23,22.5 L18.4,33.5 L23,22.5 Z" id="Shape"></path>
            <path d="M16.5,10.5 L34.5,10.5 L16.5,10.5 Z M34.5,22.5 L16.5,22.5 L16.5,7.5 C16.5,5.8 17.8,4.5 19.5,4.5 L31.5,4.5 C33.2,4.5 34.5,5.8 34.5,7.5 L34.5,22.5 Z" id="Shape"></path>
        </g>
    </g>
</svg>
